workspaces/client/public/images/svg/services-security-card.svg

<svg width="40" height="41" viewBox="0 0 40 41" fill="none" xmlns="http://www.w3.org/2000/svg">
<path d="M22.4833 22.8H18.3333C17.8333 22.8 17.4333 23.2 17.4333 23.7C17.4333 24.2 17.8333 24.6 18.3333 24.6H22.4833C22.9833 24.6 23.3833 24.2 23.3833 23.7C23.3833 23.2 22.9833 22.8 22.4833 22.8Z" fill="white"/>
<path d="M15.7333 22.8H13.65C13.15 22.8 12.75 23.2 12.75 23.7C12.75 24.2 13.15 24.6 13.65 24.6H15.7333C16.2333 24.6 16.6333 24.2 16.6333 23.7C16.6333 23.2 16.2333 22.8 15.7333 22.8Z" fill="white"/>
<path d="M30.9001 7.53324L21.7334 4.0999C20.7834 3.7499 19.2334 3.7499 18.2834 4.0999L9.11675 7.53324C7.35008 8.1999 5.91675 10.2666 5.91675 12.1499V25.6499C5.91675 26.9999 6.80008 28.7832 7.88341 29.5832L17.0501 36.4332C18.6667 37.6499 21.3167 37.6499 22.9334 36.4332L32.1001 29.5832C33.1834 28.7666 34.0667 26.9999 34.0667 25.6499V12.1499C34.0834 10.2666 32.6501 8.1999 30.9001 7.53324ZM30.2834 23.2499C30.2501 26.6999 29.3001 27.5666 25.7167 27.5666H14.3001C10.6501 27.5666 9.73341 26.6666 9.73341 23.0499V19.1666C9.73341 18.6999 10.1001 18.3332 10.5667 18.3332H29.4501C29.9167 18.3332 30.2834 18.6999 30.2834 19.1666V23.2499ZM30.2834 15.6832C30.2834 16.1499 29.9167 16.5166 29.4501 16.5166H10.5667C10.1001 16.5166 9.73341 16.1499 9.73341 15.6832V14.6166C9.73341 11.3499 10.5001 10.2999 13.3501 10.1166C13.6501 10.1166 13.9667 10.0999 14.3001 10.0999H25.7167C29.3667 10.0999 30.2834 10.9999 30.2834 14.6166V15.6832Z" fill="white"/>
</svg>

<svg xmlns="http://www.w3.org/2000/svg" width="40" height="41" fill="none"><path fill="#fff" d="M22.483 22.8h-4.15c-.5 0-.9.4-.9.9s.4.9.9.9h4.15c.5 0 .9-.4.9-.9s-.4-.9-.9-.9M15.733 22.8H13.65c-.5 0-.9.4-.9.9s.4.9.9.9h2.083c.5 0 .9-.4.9-.9s-.4-.9-.9-.9"/><path fill="#fff" d="M30.9 7.533 21.733 4.1c-.95-.35-2.5-.35-3.45 0L9.117 7.533c-1.767.667-3.2 2.734-3.2 4.617v13.5c0 1.35.883 3.133 1.966 3.933l9.167 6.85c1.617 1.217 4.267 1.217 5.883 0l9.167-6.85c1.083-.816 1.967-2.583 1.967-3.933v-13.5c.016-1.883-1.417-3.95-3.167-4.617m-.617 15.717c-.033 3.45-.983 4.317-4.566 4.317H14.3c-3.65 0-4.567-.9-4.567-4.517v-3.883c0-.467.367-.834.834-.834H29.45c.467 0 .833.367.833.834zm0-7.567a.825.825 0 0 1-.833.834H10.567a.825.825 0 0 1-.834-.834v-1.066c0-3.267.767-4.317 3.617-4.5.3 0 .617-.017.95-.017h11.417c3.65 0 4.566.9 4.566 4.517z"/></svg>
